src/assets/images/blocks/ecommerce/storefront/storefront-1-21.svg

<svg fill="none" height="24" viewBox="0 0 36 24" width="36" xmlns="http://www.w3.org/2000/svg"><path d="m0 3c0-1.65685 1.34315-3 3-3h30c1.6569 0 3 1.34315 3 3v18c0 1.6569-1.3431 3-3 3h-30c-1.65685 0-3-1.3431-3-3z" fill="#d4def7"/><path d="m26.5671 7.40307-.6966 1.53554h1.3969zm-8.0379.95155c.1313-.06232.2086-.19787.2086-.3662 0-.16495-.0812-.28441-.2125-.34055-.1196-.06223-.3035-.06942-.48-.06942h-1.2461v.85557h1.2294c.1969.00005.3615-.00258.5006-.0794zm-15.96821-.95155-.68867 1.53554h1.3815zm32.06381 9.83713h-1.9544v-.8261h1.9465c.1929 0 .3281-.0231.4095-.0955.0769-.0645.1204-.1558.1196-.2512 0-.1123-.049-.2014-.1237-.2547-.0733-.0589-.1803-.0856-.3566-.0856-.9502-.0294-2.1357.0267-2.1357-1.1925 0-.5588.39-1.147 1.4521-1.147h2.0159v-.7665h-1.873c-.5652 0-.9759.1231-1.2666.3147v-.3147h-2.7703c-.443 0-.963.0998-1.2089.3147v-.3147h-4.9473v.3147c-.3937-.2585-1.0581-.3147-1.3646-.3147h-3.2632v.3147c-.3114-.2745-1.0043-.3147-1.4263-.3147h-3.6521l-.8356.8227-.7827-.8227h-5.45552v5.3763h5.35262l.861-.836.8111.836 3.2994.0026v-1.2647h.3244c.4378.0064.9541-.0098 1.4097-.1889v1.4508h2.7214v-1.4013h.1313c.1674 0 .184.0064.184.1587v1.2423h8.2673c.5249 0 1.0735-.1221 1.3773-.3442v.3442h2.6224c.5456 0 1.0786-.0696 1.484-.2477v-1.0016c-.2457.3271-.7249.4928-1.3731.4928zm-16.781-1.2694h-1.2628v1.2923h-1.967l-1.2462-1.2754-1.295 1.2754h-4.00876v-3.8528h4.07036l1.2451 1.2629 1.2873-1.2629h3.2338c.8031 0 1.7055.2024 1.7055 1.2693 0 1.0703-.8777 1.2912-1.7623 1.2912zm6.0721-.1747c.143.188.1636.3636.1677.7032v.7638h-1.0161v-.482c0-.2318.0246-.575-.1636-.7541-.1477-.138-.3732-.171-.7425-.171h-1.0815v1.4071h-1.0168v-3.8527h2.3363c.5126 0 .8856.0207 1.2178.1817.3194.1756.5204.4161.5204.8556-.0001.6149-.4509.9286-.7173 1.025.2251.0756.4092.2112.4956.3234zm4.1805-1.589h-2.3699v.7004h2.312v.7861h-2.312v.7666l2.3699.0034v.7995h-3.3777v-3.8528h3.3777zm2.6005 3.0559h-1.971v-.8262h1.9632c.192 0 .3281-.0231.4134-.0954.0696-.0596.1196-.1462.1196-.2511 0-.1124-.0542-.2015-.1235-.255-.0775-.0587-.1843-.0853-.3604-.0853-.9465-.0295-2.1317.0265-2.1317-1.1926 0-.5588.3859-1.147 1.4469-1.147h2.029v.8199h-1.8566c-.184 0-.3037.0064-.4054.0697-.111.0624-.1521.155-.1521.2771 0 .1453.0942.2443.2214.287.1068.0338.2214.0436.3939.0436l.5448.0136c.5492.0119.9265.0986 1.1558.3097.1969.1855.3027.4198.3027.8162-.0001.8289-.5693 1.2158-1.59 1.2158zm-7.849-2.9937c-.1223-.0661-.3028-.0696-.4829-.0696h-1.2462v.8652h1.2296c.1968 0 .3642-.0063.4995-.0794.1311-.0721.2096-.205.2096-.3698 0-.1647-.0785-.284-.2096-.3464zm11.3074-.0697c-.184 0-.3065.0063-.4095.0696-.1068.0625-.1478.155-.1478.2772 0 .1452.0901.2442.2213.287.1068.0338.2213.0437.3899.0437l.5486.0132c.5534.0125.923.0992 1.1483.3103.0411.0293.0657.0622.0939.0953v-1.0962h-1.8446zm-16.2765 0h-1.3195v.9813h1.3078c.3888 0 .6306-.1756.6308-.5089-.0002-.3369-.2537-.4724-.6191-.4724zm-8.80679 0v.7005h2.22169v.7861h-2.22169v.7665h2.48819l1.156-1.1303-1.1069-1.1228zm6.49719 2.6942v-3.0888l-1.5537 1.5196zm-6.41226-6.1857v.6638h8.45506l-.0039-1.40434h.1636c.1146.00363.148.01323.148.18534v1.2191h4.373v-.327c.3528.172.9013.327 1.6232.327h1.8398l.3937-.8555h.8729l.385.8555h3.5453v-.8127l.5367.8126h2.841v-5.3719h-2.8115v.63444l-.3937-.63444h-2.885v.63444l-.3615-.63444h-3.897c-.6524 0-1.2257.08283-1.6889.31369v-.31369h-2.6894v.31369c-.2947-.23796-.6964-.31369-1.1428-.31369h-9.82502l-.65918 1.38755-.677-1.38755h-3.09455v.63444l-.34002-.63444h-2.63913l-1.22555385 2.55423v2.04307l1.81222385-3.85181h1.50368l1.72111 3.64691v-3.64691h1.65184l1.32441 2.613 1.21674-2.613h1.68495v3.85181h-1.03731l-.00378-3.01666-1.46754 3.01666h-.88858l-1.47127-3.01933v3.01933h-2.05851l-.38885-.85912h-2.10716l-.39287.85912h-1.09913v.7749h1.72924l.38987-.8555h.87297l.38885.8555h3.40222v-.6541l.30365.6569h1.76616l.3037-.6668zm13.32356-3.51363c.327-.30743.8394-.4492 1.5368-.4492h.9798v.82534h-.9592c-.3692 0-.5779.04996-.7787.22823-.1726.16215-.291.46874-.291.87245 0 .41269.0903.71021.2782.90457.1559.15242.4391.19865.7054.19865h.4547l1.4263-3.02911h1.5163l1.7135 3.6433v-3.64325h1.5409l1.7789 2.68259v-2.68259h1.0367v3.85175h-1.4342l-1.9182-2.891v2.891h-2.0611l-.3938-.85919h-2.1024l-.3821.85919h-1.1843c-.4919 0-1.1147-.099-1.4674-.4261-.3557-.327-.5406-.77001-.5406-1.47041-.0002-.57133.1103-1.09353.5455-1.50622zm-2.0817-.44916h1.0326v3.85189h-1.0326zm-4.6556 0h2.3277c.517 0 .8983.01249 1.2255.1845.3202.17206.5121.42325.5121.85282 0 .61419-.4506.93143-.713 1.02675.2214.07669.4106.21215.5007.32434.1429.1916.1675.36273.1675.7067v.75668h-1.0207l-.0038-.4857c0-.23184.0244-.56517-.1597-.75037-.1479-.13541-.3733-.16491-.7377-.16491h-1.0864v1.40108h-1.0121zm-4.0798 0h3.3808v.80211h-2.3686v.69431h2.3118v.78957h-2.3118v.76924h2.3686v.79656h-3.3808z" fill="#2557d6"/></svg>

<svg width="36" height="24" viewBox="0 0 36 24" fill="none" xmlns="http://www.w3.org/2000/svg">
<path d="M0 3C0 1.34315 1.34315 0 3 0H33C34.6569 0 36 1.34315 36 3V21C36 22.6569 34.6569 24 33 24H3C1.34315 24 0 22.6569 0 21V3Z" fill="#D4DEF7"/>
<path d="M26.5671 7.40307L25.8705 8.93861H27.2674L26.5671 7.40307ZM18.5292 8.35462C18.6605 8.2923 18.7378 8.15675 18.7378 7.98842C18.7378 7.82347 18.6566 7.70401 18.5253 7.64787C18.4057 7.58564 18.2218 7.57845 18.0453 7.57845H16.7992V8.43402H18.0286C18.2255 8.43407 18.3901 8.43144 18.5292 8.35462ZM2.56099 7.40307L1.87232 8.93861H3.25382L2.56099 7.40307ZM34.6248 17.2402H32.6704V16.4141H34.6169C34.8098 16.4141 34.945 16.391 35.0264 16.3186C35.1033 16.2541 35.1468 16.1628 35.146 16.0674C35.146 15.9551 35.097 15.866 35.0223 15.8127C34.949 15.7538 34.842 15.7271 34.6657 15.7271C33.7155 15.6977 32.53 15.7538 32.53 14.5346C32.53 13.9758 32.92 13.3876 33.9821 13.3876H35.998V12.6211H34.125C33.5598 12.6211 33.1491 12.7442 32.8584 12.9358V12.6211H30.0881C29.6451 12.6211 29.1251 12.7209 28.8792 12.9358V12.6211H23.9319V12.9358C23.5382 12.6773 22.8738 12.6211 22.5673 12.6211H19.3041V12.9358C18.9927 12.6613 18.2998 12.6211 17.8778 12.6211H14.2257L13.3901 13.4438L12.6074 12.6211H7.15188V17.9974H12.5045L13.3655 17.1614L14.1766 17.9974L17.476 18V16.7353H17.8004C18.2382 16.7417 18.7545 16.7255 19.2101 16.5464V17.9972H21.9315V16.5959H22.0628C22.2302 16.5959 22.2468 16.6023 22.2468 16.7546V17.9969H30.5141C31.039 17.9969 31.5876 17.8748 31.8914 17.6527V17.9969H34.5138C35.0594 17.9969 35.5924 17.9273 35.9978 17.7492V16.7476C35.7521 17.0747 35.2729 17.2404 34.6247 17.2404L34.6248 17.2402ZM17.8438 15.9708H16.581V17.2631H14.614L13.3678 15.9877L12.0728 17.2631H8.06404V13.4103H12.1344L13.3795 14.6732L14.6668 13.4103H17.9006C18.7037 13.4103 19.6061 13.6127 19.6061 14.6796C19.6061 15.7499 18.7284 15.9708 17.8438 15.9708ZM23.9159 15.7961C24.0589 15.9841 24.0795 16.1597 24.0836 16.4993V17.2631H23.0675V16.7811C23.0675 16.5493 23.0921 16.2061 22.9039 16.027C22.7562 15.889 22.5307 15.856 22.1614 15.856H21.0799V17.2631H20.0631V13.4104H22.3994C22.912 13.4104 23.285 13.4311 23.6172 13.5921C23.9366 13.7677 24.1376 14.0082 24.1376 14.4477C24.1375 15.0626 23.6867 15.3763 23.4203 15.4727C23.6454 15.5483 23.8295 15.6839 23.9159 15.7961ZM28.0964 14.2071H25.7265V14.9075H28.0385V15.6936H25.7265V16.4602L28.0964 16.4636V17.2631H24.7187V13.4103H28.0964V14.2071ZM30.6969 17.263H28.7259V16.4368H30.6891C30.8811 16.4368 31.0172 16.4137 31.1025 16.3414C31.1721 16.2818 31.2221 16.1952 31.2221 16.0903C31.2221 15.9779 31.1679 15.8888 31.0986 15.8353C31.0211 15.7766 30.9143 15.75 30.7382 15.75C29.7917 15.7205 28.6065 15.7765 28.6065 14.5574C28.6065 13.9986 28.9924 13.4104 30.0534 13.4104H32.0824V14.2303H30.2258C30.0418 14.2303 29.9221 14.2367 29.8204 14.3C29.7094 14.3624 29.6683 14.455 29.6683 14.5771C29.6683 14.7224 29.7625 14.8214 29.8897 14.8641C29.9965 14.8979 30.1111 14.9077 30.2836 14.9077L30.8284 14.9213C31.3776 14.9332 31.7549 15.0199 31.9842 15.231C32.1811 15.4165 32.2869 15.6508 32.2869 16.0472C32.2868 16.8761 31.7176 17.263 30.6969 17.263ZM22.8479 14.2693C22.7256 14.2032 22.5451 14.1997 22.365 14.1997H21.1188V15.0649H22.3484C22.5452 15.0649 22.7126 15.0586 22.8479 14.9855C22.979 14.9134 23.0575 14.7805 23.0575 14.6157C23.0575 14.451 22.979 14.3317 22.8479 14.2693ZM34.1553 14.1996C33.9713 14.1996 33.8488 14.2059 33.7458 14.2692C33.639 14.3317 33.598 14.4242 33.598 14.5464C33.598 14.6916 33.6881 14.7906 33.8193 14.8334C33.9261 14.8672 34.0406 14.8771 34.2092 14.8771L34.7578 14.8903C35.3112 14.9028 35.6808 14.9895 35.9061 15.2006C35.9472 15.2299 35.9718 15.2628 36 15.2959V14.1997H34.1554L34.1553 14.1996ZM17.8788 14.1996H16.5593V15.1809H17.8671C18.2559 15.1809 18.4977 15.0053 18.4979 14.672C18.4977 14.3351 18.2442 14.1996 17.8788 14.1996ZM9.07201 14.1996V14.9001H11.2937V15.6862H9.07201V16.4527H11.5602L12.7162 15.3224L11.6093 14.1996H9.07201ZM15.5692 16.8938V13.805L14.0155 15.3246L15.5692 16.8938ZM9.15694 10.7081V11.3719H17.612L17.6081 9.96756H17.7717C17.8863 9.97119 17.9197 9.98079 17.9197 10.1529V11.372H22.2927V11.045C22.6455 11.217 23.194 11.372 23.9159 11.372H25.7557L26.1494 10.5165H27.0223L27.4073 11.372H30.9526V10.5593L31.4893 11.3719H34.3303V6H31.5188V6.63444L31.1251 6H28.2401V6.63444L27.8786 6H23.9816C23.3292 6 22.7559 6.08283 22.2927 6.31369V6H19.6033V6.31369C19.3086 6.07573 18.9069 6 18.4605 6H8.63548L7.9763 7.38755L7.2993 6H4.20475V6.63444L3.86473 6H1.2256L4.61549e-05 8.55423V10.5973L1.81227 6.74549H3.31595L5.03706 10.3924V6.74549H6.6889L8.01331 9.35849L9.23005 6.74549H10.915V10.5973H9.87769L9.87391 7.58064L8.40637 10.5973H7.51779L6.04652 7.57797V10.5973H3.98801L3.59916 9.73818H1.492L1.09913 10.5973H0V11.3722H1.72924L2.11911 10.5167H2.99208L3.38093 11.3722H6.78315V10.7181L7.0868 11.375H8.85296L9.15666 10.7082L9.15694 10.7081ZM22.4805 7.19447C22.8075 6.88704 23.3199 6.74527 24.0173 6.74527H24.9971V7.57061H24.0379C23.6687 7.57061 23.46 7.62057 23.2592 7.79884C23.0866 7.96099 22.9682 8.26758 22.9682 8.67129C22.9682 9.08398 23.0585 9.3815 23.2464 9.57586C23.4023 9.72828 23.6855 9.77451 23.9518 9.77451H24.4065L25.8328 6.7454H27.3491L29.0626 10.3887V6.74545H30.6035L32.3824 9.42804V6.74545H33.4191V10.5972H31.9849L30.0667 7.7062V10.5972H28.0056L27.6118 9.73801H25.5094L25.1273 10.5972H23.943C23.4511 10.5972 22.8283 10.4982 22.4756 10.1711C22.1199 9.8441 21.935 9.40109 21.935 8.70069C21.9348 8.12936 22.0453 7.60716 22.4805 7.19447ZM20.3988 6.74531H21.4314V10.5972H20.3988V6.74531ZM15.7432 6.74531H18.0709C18.5879 6.74531 18.9692 6.7578 19.2964 6.92981C19.6166 7.10187 19.8085 7.35306 19.8085 7.78263C19.8085 8.39682 19.3579 8.71406 19.0955 8.80938C19.3169 8.88607 19.5061 9.02153 19.5962 9.13372C19.7391 9.32532 19.7637 9.49645 19.7637 9.84042V10.5971H18.743L18.7392 10.1114C18.7392 9.87956 18.7636 9.54623 18.5795 9.36103C18.4316 9.22562 18.2062 9.19612 17.8418 9.19612H16.7554V10.5972H15.7433L15.7432 6.74531ZM11.6634 6.74531H15.0442V7.54742H12.6756V8.24173H14.9874V9.0313H12.6756V9.80054H15.0442V10.5971H11.6634V6.74531Z" fill="#2557D6"/>
</svg>
